X: 1
T: Coleman's
R: slip jig
M: 9/8
L: 1/8
K: Edor
|:B2E E2D B,2A,|B,2E E2F G2A|B2E E2D B,2A,|B,2D D2C D3:|
|:B2e e2d e2d|B2e e2c dcB|A2d d2c d3|e2d d2B A3:|


Tune 409	Setting 13259

